Bloom-Colors/scalable/status/prime-indicator-intel-symbolic.svg

<svg xmlns="http://www.w3.org/2000/svg" width="16" height="16" version="1">
 <path style="fill:#444444" d="M 1.7773438 1 C 0.79245483 1 0 1.7805 0 2.75 L 0 13.25 C 0 14.2195 0.79245483 15 1.7773438 15 L 14.222656 15 C 15.207545 15 16 14.2195 16 13.25 L 16 2.75 C 16 1.7805 15.207545 1 14.222656 1 L 1.7773438 1 z M 1 5.125 L 1.8886719 5.125 L 1.8886719 6 L 1 6 L 1 5.125 z M 14 6 L 14.888672 6 L 14.888672 11 C 14.124228 10.93167 14 10.661016 14 10.166016 L 14 6 z M 7 6.0507812 L 7.8886719 6.0507812 L 7.8886719 7.125 L 8.7773438 7.125 L 8.7773438 8 L 7.8886719 8 L 7.8886719 9.25 C 7.8886719 9.47575 7.9368454 10.125 8.1777344 10.125 L 8.7773438 10.125 L 8.7773438 11 L 7.8886719 11 C 7.0611163 11 7 9.9759531 7 9.4238281 L 7 6.0507812 z M 1 7 L 1.8886719 7 L 1.8886719 11 C 1.1243163 10.934402 1 10.27597 1 9.8007812 L 1 7 z M 2.6660156 7 L 4.8886719 7 C 5.7754274 6.99072 6.2226562 7.6929102 6.2226562 8.1992188 L 6.2226562 11 L 5.3339844 11 L 5.3339844 8.1992188 C 5.3339844 7.9880235 5.0350812 7.8007812 4.7382812 7.8007812 L 3.5546875 7.8007812 L 3.5546875 11 L 2.6660156 11 L 2.6660156 7 z M 11.863281 7 L 11.865234 7 C 12.937234 7.00096 13.554688 7.8439971 13.554688 8.9511719 L 13.554688 9.4003906 L 11.015625 9.4003906 C 11.056514 9.8491804 11.3628 10.175781 11.892578 10.175781 C 12.339689 10.175781 12.562536 10.054636 12.820312 9.8066406 L 13.439453 10.384766 C 13.040342 10.766358 12.623433 10.998047 11.884766 10.998047 C 10.921211 10.998047 10 10.486107 10 8.9941406 C 10 7.7199296 10.803726 7.0008 11.863281 7 z M 11.775391 7.8007812 A 0.88888889 0.79998179 0 0 0 10.886719 8.5996094 L 12.666016 8.5996094 A 0.88888889 0.79998179 0 0 0 11.775391 7.8007812 z"/>
</svg>

<svg width="16" height="16" version="1" xmlns="http://www.w3.org/2000/svg">
<path d="m1.7773 1c-0.98489 0-1.7773 0.7805-1.7773 1.75v10.5c0 0.9695 0.79245 1.75 1.7773 1.75h12.445c0.98489 0 1.7773-0.7805 1.7773-1.75v-10.5c0-0.9695-0.79246-1.75-1.7773-1.75h-12.445zm-0.77734 4.125h0.88867v0.875h-0.88867v-0.875zm13 0.875h0.88867v5c-0.76444-0.06833-0.88867-0.33898-0.88867-0.83398v-4.166zm-7 0.050781h0.88867v1.0742h0.88867v0.875h-0.88867v1.25c0 0.22575 0.048174 0.875 0.28906 0.875h0.59961v0.875h-0.88867c-0.82756 0-0.88867-1.024-0.88867-1.5762v-3.373zm-6 0.94922h0.88867v4c-0.76436-0.065598-0.88867-0.72403-0.88867-1.1992v-2.8008zm1.666 0h2.2227c0.88676-0.00928 1.334 0.69291 1.334 1.1992v2.8008h-0.88867v-2.8008c0-0.2112-0.2989-0.39844-0.5957-0.39844h-1.1836v3.1992h-0.88867v-4zm9.1973 0h0.001953c1.072 9.6e-4 1.6895 0.844 1.6895 1.9512v0.44922h-2.5391c0.040889 0.44879 0.34718 0.77539 0.87695 0.77539 0.44711 0 0.66996-0.12114 0.92773-0.36914l0.61914 0.57813c-0.39911 0.38159-0.81602 0.61328-1.5547 0.61328-0.96356 0-1.8848-0.51194-1.8848-2.0039 0-1.2742 0.80373-1.9933 1.8633-1.9941zm-0.08789 0.80078a0.88889 0.79998 0 0 0-0.88867 0.79883h1.7793a0.88889 0.79998 0 0 0-0.89062-0.79883z" fill="#666"/>
</svg>
